X: 1
T: Michael's Mazurka
C: Michael Ferrie
R: Mazurka
Z: 2014 John Chambers <jc:trillian.mit.edu>
N: Michael Ferrie wrote this in 1996 in the last week of his life
N: as played by Catriona MacDonald on her CD "Bold"
M: 3/4
L: 1/8
K: G
DF |\
G4 A/B/c | B3 A GF | EG GB AG | Fd FE DF |\
{F}G4 A/B/c | B3 A GF | EG GB A/G/F | {F}G4 :|[K:Gm]
|: D^F |\
G3 A Bc | d3 c BG | A^F AF DF | G>A B/c/d g2 |\
DG GA Bc | d3 c B2 | A^F AF EF |1 {F}G4 :|2 {F}G3 A ||[K:G]
|: Bd |\
g6 | d4 cB | A2 a3 g | fd cd ef |\
{f}g4 b2 | g3 d2 c/B/ | A2 a3 g | fd cA FD |
{F}G2 AB G2 | A2 Bc A2 | B2 cd B2 | c2 de c2 |\
d2 g3 e | f3 g a/g/f | g3 f ga |1 g3 d :|2 g4 |]
